static/logos/readme-glyph-color.svg

<svg width="50" height="37" viewBox="0 0 50 37" fill="none" xmlns="http://www.w3.org/2000/svg">
<path d="M45.857 3.64071e-07H33.728C31.6994 -0.000582151 29.7309 0.69787 28.1462 1.98052C26.5615 3.26321 25.455 5.05364 25.0083 7.05774C24.5617 5.05364 23.4552 3.26321 21.8705 1.98052C20.2858 0.69787 18.3173 -0.000582151 16.2887 3.64071e-07H4.16806C3.06262 3.64071e-07 2.00247 0.444729 1.22081 1.23634C0.439143 2.02796 0 3.10162 0 4.22115V25.8333C0 26.9528 0.439143 28.0264 1.22081 28.8181C2.00247 29.6097 3.06262 30.0544 4.16806 30.0544H11.954C20.8237 30.0544 23.4745 32.2156 24.7416 36.6647C24.7548 36.7167 24.7852 36.7625 24.8276 36.7948C24.87 36.827 24.922 36.8437 24.9751 36.842H25.0251C25.0781 36.8437 25.13 36.827 25.1725 36.7948C25.2149 36.7625 25.2452 36.7167 25.2584 36.6647C26.5338 32.2156 29.1848 30.0544 38.0461 30.0544H45.8319C46.9374 30.0544 47.9976 29.6097 48.7793 28.8181C49.5609 28.0264 50 26.9528 50 25.8333V4.22115C50.0001 3.10601 49.5644 2.03615 48.7881 1.24526C48.0118 0.45437 46.9581 0.00668662 45.857 3.64071e-07ZM21.0071 23.326C21.0071 23.3658 20.9992 23.4054 20.9842 23.4422C20.9691 23.4791 20.947 23.5126 20.9191 23.5408C20.8913 23.5691 20.8582 23.5915 20.8218 23.6067C20.7854 23.622 20.7464 23.6299 20.707 23.6299H6.78561C6.74621 23.6299 6.70718 23.622 6.67078 23.6067C6.63437 23.5915 6.60126 23.5691 6.5734 23.5408C6.54553 23.5126 6.5234 23.4791 6.50832 23.4422C6.49324 23.4054 6.48553 23.3658 6.48553 23.326V21.3167C6.48553 21.2768 6.49324 21.2373 6.50832 21.2004C6.5234 21.1635 6.54553 21.13 6.5734 21.1018C6.60126 21.0736 6.63437 21.0512 6.67078 21.0359C6.70718 21.0206 6.74621 21.0128 6.78561 21.0128H20.707C20.7464 21.0128 20.7854 21.0206 20.8218 21.0359C20.8582 21.0512 20.8913 21.0736 20.9191 21.1018C20.947 21.13 20.9691 21.1635 20.9842 21.2004C20.9992 21.2373 21.0071 21.2768 21.0071 21.3167V23.326ZM21.0071 17.9736C21.0071 18.0542 20.9754 18.1314 20.9191 18.1884C20.8628 18.2454 20.7866 18.2775 20.707 18.2775H6.78561C6.70603 18.2775 6.62967 18.2454 6.5734 18.1884C6.51711 18.1314 6.48553 18.0542 6.48553 17.9736V15.9643C6.48553 15.8837 6.51711 15.8064 6.5734 15.7494C6.62967 15.6924 6.70603 15.6604 6.78561 15.6604H20.707C20.7866 15.6604 20.8628 15.6924 20.9191 15.7494C20.9754 15.8064 21.0071 15.8837 21.0071 15.9643V17.9736ZM21.0071 12.6212C21.0071 12.7018 20.9754 12.7791 20.9191 12.836C20.8628 12.893 20.7866 12.9251 20.707 12.9251H6.78561C6.70603 12.9251 6.62967 12.893 6.5734 12.836C6.51711 12.7791 6.48553 12.7018 6.48553 12.6212V10.6119C6.48553 10.5313 6.51711 10.454 6.5734 10.397C6.62967 10.34 6.70603 10.308 6.78561 10.308H20.707C20.7866 10.308 20.8628 10.34 20.9191 10.397C20.9754 10.454 21.0071 10.5313 21.0071 10.6119V12.6212ZM43.5146 23.3175C43.5146 23.3574 43.5067 23.397 43.4917 23.4338C43.4767 23.4707 43.4545 23.5042 43.4266 23.5324C43.3988 23.5606 43.3657 23.583 43.3293 23.5983C43.2929 23.6136 43.2539 23.6214 43.2145 23.6214H29.2932C29.2537 23.6214 29.2147 23.6136 29.1783 23.5983C29.1419 23.583 29.1088 23.5606 29.0809 23.5324C29.0531 23.5042 29.0309 23.4707 29.0158 23.4338C29.0007 23.397 28.9931 23.3574 28.9931 23.3175V21.3083C28.9931 21.2683 29.0007 21.2288 29.0158 21.1919C29.0309 21.155 29.0531 21.1215 29.0809 21.0933C29.1088 21.0651 29.1419 21.0427 29.1783 21.0275C29.2147 21.0122 29.2537 21.0043 29.2932 21.0043H43.2145C43.2539 21.0043 43.2929 21.0122 43.3293 21.0275C43.3657 21.0427 43.3988 21.0651 43.4266 21.0933C43.4545 21.1215 43.4767 21.155 43.4917 21.1919C43.5067 21.2288 43.5146 21.2683 43.5146 21.3083V23.3175ZM43.5146 17.9651C43.5146 18.0458 43.4829 18.123 43.4266 18.18C43.3704 18.237 43.2941 18.269 43.2145 18.269H29.2932C29.2136 18.269 29.1372 18.237 29.0809 18.18C29.0247 18.123 28.9931 18.0458 28.9931 17.9651V15.9559C28.9931 15.8752 29.0247 15.7979 29.0809 15.7409C29.1372 15.6839 29.2136 15.652 29.2932 15.652H43.2145C43.2941 15.652 43.3704 15.6839 43.4266 15.7409C43.4829 15.7979 43.5146 15.8752 43.5146 15.9559V17.9651ZM43.5146 12.6127C43.5146 12.6933 43.4829 12.7706 43.4266 12.8276C43.3704 12.8846 43.2941 12.9167 43.2145 12.9167H29.2932C29.2136 12.9167 29.1372 12.8846 29.0809 12.8276C29.0247 12.7706 28.9931 12.6933 28.9931 12.6127V10.6119C28.9931 10.5313 29.0247 10.454 29.0809 10.397C29.1372 10.34 29.2136 10.308 29.2932 10.308H43.2145C43.2941 10.308 43.3704 10.34 43.4266 10.397C43.4829 10.454 43.5146 10.5313 43.5146 10.6119V12.6212V12.6127Z" fill="#018EF5"/>
</svg>

<svg xmlns="http://www.w3.org/2000/svg" width="86.486" height="64" fill="none" viewBox="0 0 50 37"><path fill="#018EF5" d="M45.857 0H33.728a8.866 8.866 0 0 0-5.582 1.98 9.066 9.066 0 0 0-3.138 5.078 9.066 9.066 0 0 0-3.137-5.077A8.866 8.866 0 0 0 16.288 0H4.169A4.142 4.142 0 0 0 1.22 1.236 4.249 4.249 0 0 0 0 4.221v21.612c0 1.12.44 2.193 1.22 2.985a4.142 4.142 0 0 0 2.948 1.236h7.786c8.87 0 11.52 2.162 12.788 6.61a.232.232 0 0 0 .234.177h.05a.232.232 0 0 0 .232-.176c1.276-4.45 3.927-6.61 12.788-6.61h7.786a4.142 4.142 0 0 0 2.947-1.237A4.249 4.249 0 0 0 50 25.833V4.221a4.248 4.248 0 0 0-1.212-2.976A4.142 4.142 0 0 0 45.857 0Zm-24.85 23.326a.309.309 0 0 1-.088.215.297.297 0 0 1-.212.089H6.786a.296.296 0 0 1-.213-.09.304.304 0 0 1-.087-.214v-2.01a.307.307 0 0 1 .185-.28.296.296 0 0 1 .115-.023h13.921a.296.296 0 0 1 .277.187.309.309 0 0 1 .023.117v2.009Zm0-5.352c0 .08-.032.157-.088.214a.298.298 0 0 1-.212.09H6.786a.298.298 0 0 1-.213-.09.306.306 0 0 1-.087-.214v-2.01a.298.298 0 0 1 .3-.304h13.921a.306.306 0 0 1 .3.304v2.01Zm0-5.353c0 .08-.032.158-.088.215a.298.298 0 0 1-.212.09H6.786a.298.298 0 0 1-.213-.09.305.305 0 0 1-.087-.215v-2.01a.298.298 0 0 1 .3-.304h13.921a.306.306 0 0 1 .3.304v2.01Zm22.508 10.696a.309.309 0 0 1-.088.215.3.3 0 0 1-.212.09H29.293a.296.296 0 0 1-.212-.09.305.305 0 0 1-.088-.215v-2.009a.307.307 0 0 1 .185-.28.296.296 0 0 1 .115-.024h13.922a.296.296 0 0 1 .212.09.302.302 0 0 1 .088.214v2.01Zm0-5.352c0 .08-.032.158-.088.215a.298.298 0 0 1-.212.089H29.293a.298.298 0 0 1-.212-.089.306.306 0 0 1-.088-.215v-2.01c0-.08.032-.157.088-.214a.298.298 0 0 1 .212-.089h13.922c.08 0 .155.032.212.089a.306.306 0 0 1 .088.215v2.01Zm0-5.352c0 .08-.032.158-.088.215a.298.298 0 0 1-.212.089H29.293a.299.299 0 0 1-.212-.09.306.306 0 0 1-.088-.214v-2.001c0-.08.032-.158.088-.215a.298.298 0 0 1 .212-.089h13.922c.08 0 .155.032.212.089a.306.306 0 0 1 .088.215v2.01-.01Z"/></svg>
